X: 1
T: Ships Are Sailing, The
Z: TJ
S: https://thesession.org/tunes/543#setting47707
R: reel
M: 4/4
L: 1/8
K: Edor
|:Beed BcdB|AD (3FED AD (3FED|~E3F ~G3A|Beef gfed|#
Beed BcdB|AD (3FED AD (3FED|EDEF GFGA|Beed e3f:|
|:~g3a bgeg|~f3g afdf|~g3a bgeg|fedf e2ef|
~g3a bgeg|~f3g afdf|g2bg f2af|edef gfef:|

